2024/access/img/c.svg

<svg width="26" height="32" viewBox="0 0 26 32" fill="none" xmlns="http://www.w3.org/2000/svg">
<path d="M19.352 1.52C13.6112 1.52 8.23203 5.4112 8.23203 11.5904V20.4128C8.23203 26.592 13.6112 30.4832 19.352 30.4832H25.6208C25.6208 30.4832 23.7456 30.688 23.7456 31.4752C23.7456 31.6224 23.7616 31.9264 24.1936 32.0032H11.9792C8.68963 32.0032 0.324829 28.0672 0.324829 20.1984V11.8112C0.331229 3.936 8.69283 0 11.9824 0H25.1152C25.1152 0 23.24 0.2048 23.24 0.992C23.24 1.1392 23.256 1.4432 23.688 1.52H19.352Z" fill="#FF0084"/>
</svg>

<svg xmlns="http://www.w3.org/2000/svg" width="26" height="32" fill="none" viewBox="0 0 26 32"><path fill="#ff0084" d="M19.35 1.52c-5.74 0-11.12 3.9-11.12 10.07v8.82c0 6.18 5.38 10.07 11.12 10.07h6.27s-1.87.2-1.87 1c0 .14.01.45.44.52H11.98C8.69 32 .32 28.07.32 20.2v-8.4C.33 3.94 8.7 0 11.98 0h13.14s-1.88.2-1.88 1c0 .14.02.44.45.52z"/></svg>
